X: 34013
T: Reel Béatrice
R: reel
M: 4/4
K: Aminor
A,3 B,|:C2 A,C EA,CE|AEE/E/^D EGA/^A/B|c2 Ac eAce|aee/e/^d egab|
c'bag {e}fedc|Bde/d/B dd/d/d^d|ee/e/ef edcB|1 A2 a z A,3 B,:|2 A2 a/b/a/^g/ a2 a/b/a/g/||
|:a2 ^ga bff/f/f|fg/f/ef aee/e/e|ee/e/ef edcB|cd/c/Bc AB/c/eg|
a2 ^ga bff/f/f|fg/f/ef aee/e/|ee/e/ef edcB|1 A3 e e/e/eg^g:|2 A2 z2 [B/d]8||
|:[c/e]6 G EGce|cGG/G/G EGc/d/e|d3B GA/B/de|cc'ba gfed
cGG/G/G EGce|cGG/G/G EGc/d/e|d3B GA/B/de|1 cd/c/Bd cee/e/d:|2 cd/c/Bd cEE/E/D||

